X: 167
T:Glen Lyon
T:Haughs of Cromdale
S:Kerr's Merry Melodies
M:4/4
L:1/8
Q:1/2=100
K:AMin
% A mixolydian/dorian/minor pentatonic
g|eA A/A/A edBd|BG G/G/G BABd|eA A/A/A edBd|edgB A3:|
g|edeg     abag|dgBg     dgBg|edeg     abag|edgB A3:|

Since both the C and F are missing, you might equally well find that tune
written with one or two sharps; they make no difference.  You could look at
this a different way by saying the tune could equally well be minor, dorian
or mixolydian; a pentatonic mode is ambiguous three ways if you see it as
a reduced form of a seven-note mode.

A bothy ballad from the north-east of Scotland:

